icons/outline/filter-2-cancel.svg

<svg width="24" height="24" viewBox="0 0 24 24" fill="none" xmlns="http://www.w3.org/2000/svg">
<path d="M4 6H20" stroke="black" stroke-width="2" stroke-linecap="round" stroke-linejoin="round"/>
<path d="M6 12H18" stroke="black" stroke-width="2" stroke-linecap="round" stroke-linejoin="round"/>
<path d="M9 18H12" stroke="black" stroke-width="2" stroke-linecap="round" stroke-linejoin="round"/>
<path d="M17 21L21 17M16 19C16 19.7956 16.3161 20.5587 16.8787 21.1213C17.4413 21.6839 18.2044 22 19 22C19.7956 22 20.5587 21.6839 21.1213 21.1213C21.6839 20.5587 22 19.7956 22 19C22 18.2044 21.6839 17.4413 21.1213 16.8787C20.5587 16.3161 19.7956 16 19 16C18.2044 16 17.4413 16.3161 16.8787 16.8787C16.3161 17.4413 16 18.2044 16 19Z" stroke="black" stroke-width="2" stroke-linecap="round" stroke-linejoin="round"/>
</svg>

<!--
category: Sytem
-->
<svg
  xmlns="http://www.w3.org/2000/svg"
  width="24"
  height="24"
  viewBox="0 0 24 24"
  fill="none"
  stroke="currentColor"
  stroke-width="2"
  stroke-linecap="round"
  stroke-linejoin="round"
>
  <path d="M4 6h16" stroke="black" stroke-width="2" stroke-linecap="round" stroke-linejoin="round" />
  <path d="M6 12h12" stroke="black" stroke-width="2" stroke-linecap="round" stroke-linejoin="round" />
  <path d="M9 18h3" stroke="black" stroke-width="2" stroke-linecap="round" stroke-linejoin="round" />
  <path d="M17 21l4 -4m-5 2c0 .796 .316 1.559 .879 2.121c.563 .563 1.326 .879 2.121 .879c.796 0 1.559 -.316 2.121 -.879c.563 -.563 .879 -1.326 .879 -2.121c0 -.796 -.316 -1.559 -.879 -2.121c-.563 -.563 -1.326 -.879 -2.121 -.879c-.796 0 -1.559 .316 -2.121 .879c-.563 .563 -.879 1.326 -.879 2.121z" stroke="black" stroke-width="2" stroke-linecap="round" stroke-linejoin="round" />
</svg>
